lib/assets/icons/svg/outlined-action-love.svg

<svg viewBox="0 0 24 24" xmlns="http://www.w3.org/2000/svg">
  <path  d="M 11.993 19.487 C 11.866 19.486 11.744 19.436 11.653 19.347 L 4.993 12.987 L 4.803 12.797 C 2.993 10.857 3.078 7.823 4.993 5.987 C 6.92 4.143 9.915 4.015 11.993 5.687 C 14.071 4.015 17.066 4.143 18.993 5.987 L 19.243 6.237 C 21.014 8.179 20.903 11.181 18.993 12.987 L 12.373 19.317 C 12.276 19.424 12.138 19.486 11.993 19.487 Z M 8.673 5.487 C 7.556 5.475 6.478 5.902 5.673 6.677 C 4.117 8.14 4.05 10.59 5.523 12.137 L 5.673 12.287 L 11.953 18.287 L 18.233 12.287 C 19.789 10.853 19.884 8.427 18.443 6.877 C 18.373 6.807 18.313 6.737 18.243 6.677 L 18.243 6.677 C 16.587 5.086 13.969 5.086 12.313 6.677 C 12.118 6.856 11.818 6.856 11.623 6.677 C 10.83 5.915 9.773 5.489 8.673 5.487 Z"/>
</svg>

<svg xmlns="http://www.w3.org/2000/svg" viewBox="0 0 24 24"><path d="M11.993 19.487a.492.492 0 0 1-.34-.14l-6.66-6.36-.19-.19a4.85 4.85 0 0 1 .19-6.81 5.31 5.31 0 0 1 7-.3 5.31 5.31 0 0 1 7 .3l.25.25a4.82 4.82 0 0 1-.25 6.75l-6.62 6.33a.518.518 0 0 1-.38.17zm-3.32-14a4.26 4.26 0 0 0-3 1.19 3.85 3.85 0 0 0-.15 5.46l.15.15 6.28 6 6.28-6a3.82 3.82 0 0 0 .21-5.41c-.07-.07-.13-.14-.2-.2a4.28 4.28 0 0 0-5.93 0 .51.51 0 0 1-.69 0 4.269 4.269 0 0 0-2.95-1.19z"/></svg>
